X:1
T:Bauernmadl
C:traditionell
R:volkstanz
A:Oesterreich
F:http://simonwascher.info/
Z:abc transcription Simon Wascher
M:2/4
L:1/8
K:G
d |\
B>d dd | B>d dd | ee dB | c3c |
A>c cc | A>c cc | dd cA | B3 ||
z |\
dd cB | A3d | ee dc | B3c |
dd cB | BA A2 | d/e/d c/d/c | Bd B2 |]
%%wordsfont Times-Italic 11pt
W:aus Simon Waschers TradArchiv
